X: 13901
T: Fox That Got Away, The
R: mazurka
M: 3/4
K: Bminor
|:bf g/f/e f2|bf g/f/e f2|bf g/f/e fd|ec dB cA:|
|:F>B Bc d2|F>B Bc BA|F>B Bc de|f/e/d e/d/c dB:|

